X: 1
T: Bunch Of Currants, The
M: 4/4
L: 1/8
R: reel
K: Edor
|:EFGA BABc|dD(3DDD dFAF|EFGA BAGF|EBAF GEED|
 EFGA BABc|dD(3DDD D2AF|EFGA BAGF|E2BE GEE2:|
|:efge fgaf|efge fedf|eB(3BBB BAGF|EBAF GEE2|
 efge fgaf|efge fedf|eB(3BBB BAGF|EBAF GEE2:|
